X: 10724
Q: "Copyright."
M: 3/4
L: 1/8
K: F
c2Acfa | c'2cc"^>"dc | B2Gceg | b2cc"^>"dc |\
c2Acfa | c'2dd"^>"ed | c z/b/b z/e/e z/e/ | f2[f'2f2] "^Fin."yH|]\
"^DUET."[cA][BG] | "^Piu dolce."\
[A2F2][B2G2][c2A2] | [a2f2][g2e2][f2d2] |\
[fd][ec][ge][fd][ec][dB] | [c2A2][f2A2][A2F2] |
[B2G2][c2A2][d2B2] | [b2d2][a2c2][g2B2] |\
[gB][fA][ac][gB][fA][eG] | [f4A4]c2 |\
[a2f2][ge][fd][ec][dB] | [c2A2][A2F2][c2A2] |\
[B2d2][c'd-][bd][aB-][gB] | [f2A2][e2G2][g2B2] |\
[f2A2][g2B2][a2c2] | [d2B2][bd][ac][gB][fA] |\
[e2c2G2][a2c2][g2B2] | "^D.C."[f4A4] |]



